assets/sand-clock.svg

<svg xmlns="http://www.w3.org/2000/svg" fill="none" viewBox="0 0 23 25">
  <path stroke="#2A2238" stroke-linecap="round" stroke-width="1.5" d="M1 1h21M1 24h21"/>
  <path stroke="#2A2238" stroke-width="1.5" d="M3 1c.44248 3.21952 1.8005 5.69869 6.5 11.5-4.60511 5.4456-6.39292 8.0571-6.5 11M20.5 1c-.4425 3.21952-1.8005 5.69869-6.5 11.5 4.6051 5.4456 6.3929 8.0571 6.5 11"/>
  <path fill="#2A2238" d="M12 12c.6895 0 3.2131-3.87879 2.9855-5.09091-.2276-1.21212-5.74341-1.21212-5.97103 0C8.78684 8.12121 11.3105 12 12 12Zm-.5749 6.7576c1.264 0 6.9287 4.5 6.2105 4.5H5.92512c-1.12612 0 4.23598-4.5 5.49998-4.5Z"/>
</svg>

<svg width="23" height="25" viewBox="0 0 23 25" fill="none" xmlns="http://www.w3.org/2000/svg">
<path d="M1 1L22 1" stroke="#2A2238" stroke-width="1.5" stroke-linecap="round"/>
<path d="M1 24L22 24" stroke="#2A2238" stroke-width="1.5" stroke-linecap="round"/>
<path d="M3 1C3.44248 4.21952 4.8005 6.69869 9.5 12.5C4.89489 17.9456 3.10708 20.5571 3 23.5" stroke="#2A2238" stroke-width="1.5"/>
<path d="M20.5 1C20.0575 4.21952 18.6995 6.69869 14 12.5C18.6051 17.9456 20.3929 20.5571 20.5 23.5" stroke="#2A2238" stroke-width="1.5"/>
<path d="M12 12C12.6895 12 15.2131 8.12121 14.9855 6.90909C14.7579 5.69697 9.24209 5.69697 9.01447 6.90909C8.78684 8.12121 11.3105 12 12 12Z" fill="#2A2238"/>
<path d="M11.4251 18.7576C12.6891 18.7576 18.3538 23.2576 17.6356 23.2576C16.9174 23.2576 7.05124 23.2576 5.92512 23.2576C4.799 23.2576 10.1611 18.7576 11.4251 18.7576Z" fill="#2A2238"/>
</svg>
